Gurmukhi/0A18.svg

<svg enable-background="new 0 0 336 592" viewBox="0 0 336 592" xmlns="http://www.w3.org/2000/svg"><path d="m308.230469 213.975494c-.902008 3.489334-3.427307 3.184403-5.737702 3.191498-8.831237.027146-17.662872.050873-26.493805-.007919-2.983123-.019852-4.463684.710327-4.421386 4.26741.257354 21.657089.307159 43.317139.3367 64.976319.044342 32.492706.016754 64.985473.010834 97.47821-.000275 1.497559.040344 3.012543-.160767 4.489075-.412506 3.028534-2.199707 4.091949-4.955444 2.759063-6.147064-2.973236-12.22113-6.09729-18.327728-9.154327-2.625534-1.314423-2.374665-3.742737-2.374726-6.07724-.00032-11.294617-.000152-22.589233-.000152-35.000336-11.108292 9.28418-23.032975 12.019928-36.01442 8.10669-12.89209-3.886292-21.196319-13.240937-27.477203-25.116699-2.64737 2.304687-2.991333 5.451629-4.541031 7.875091-15.212021 23.789307-42.818298 29.98761-66.453858 14.514832-17.487373-11.447998-28.362991-28.222412-36.820625-46.86435-1.695091-3.736236.513977-5.960083 2.501206-8.368683 6.267479-7.596344 11.857208-15.599304 15.845893-24.677276 6.715111-15.283081 6.014428-30.358841-.737998-45.417862-1.27987-2.854309-3.133164-3.866348-6.201508-3.819748-9.828957.149353-19.663094-.029434-29.491493.137772-3.080845.052413-5.06094-.839142-6.111389-3.823761-1.379666-3.919983-2.950718-7.772187-4.393738-11.670472-1.362023-3.679474-.324875-5.947769 3.868698-5.958831 14.996384-.039566 29.993011.006912 44.989349-.040665 2.495148-.007904 4.048508 1.334015 5.311157 3.172974 11.466042 16.699432 20.041794 34.669433 21.670228 55.103637 1.398185 17.545044-5.989701 32.403656-16.35318 45.966461-6.75042 8.834382-6.475457 5.698853-.458832 14.98523 5.313873 8.201752 12.222778 14.548859 22.126579 16.641937 12.730385 2.690521 25.802605-3.376617 33.130211-15.38089 5.59642-9.168182 8.352585-18.454376 5.61496-29.77127-4.150879-17.159058-5.276352-34.864167-4.361893-52.570618.396072-7.668823 1.700912-15.194061 5.58046-22.058243 2.473754-4.376892 5.855728-7.144562 11.056274-7.296448 5.583939-.163055 9.506989 2.454026 12.121765 7.230561 4.468811 8.163436 4.971634 17.215316 5.350586 26.161544.835388 19.721741-1.80043 39.195832-6.08197 58.355408-1.393662 6.236542-.011444 10.799835 2.909698 15.868347 12.13678 21.058747 38.102448 20.129486 51.927384 1.679993 1.253952-1.673401 1.752273-3.4151 1.743805-5.549316-.140274-35.322785-.22432-70.645829-.251145-105.968873-.004638-6.086318.581101-6.533599 6.59668-6.538299 14.830002-.011597 29.660995.081818 44.489304-.079407 3.34439-.036362 5.324615 1.041352 6.379028 4.18898 1.526733 4.557709 4.031586 8.777726 4.661194 14.060501z"/></svg>

<svg version="1.1" id="Layer_1" xmlns="http://www.w3.org/2000/svg" xmlns:xlink="http://www.w3.org/1999/xlink" x="0px" y="0px"
	 width="100%" viewBox="0 0 336 592" enable-background="new 0 0 336 592" xml:space="preserve">
<path fill="#000000" opacity="1.000000" stroke="none" 
	d="
M308.230469,213.975494 
	C307.328461,217.464828 304.803162,217.159897 302.492767,217.166992 
	C293.661530,217.194138 284.829895,217.217865 275.998962,217.159073 
	C273.015839,217.139221 271.535278,217.869400 271.577576,221.426483 
	C271.834930,243.083572 271.884735,264.743622 271.914276,286.402802 
	C271.958618,318.895508 271.931030,351.388275 271.925110,383.881012 
	C271.924835,385.378571 271.965454,386.893555 271.764343,388.370087 
	C271.351837,391.398621 269.564636,392.462036 266.808899,391.129150 
	C260.661835,388.155914 254.587769,385.031860 248.481171,381.974823 
	C245.855637,380.660400 246.106506,378.232086 246.106445,375.897583 
	C246.106125,364.602966 246.106293,353.308350 246.106293,340.897247 
	C234.998001,350.181427 223.073318,352.917175 210.091873,349.003937 
	C197.199783,345.117645 188.895554,335.763000 182.614670,323.887238 
	C179.967300,326.191925 179.623337,329.338867 178.073639,331.762329 
	C162.861618,355.551636 135.255341,361.749939 111.619781,346.277161 
	C94.132408,334.829163 83.256790,318.054749 74.799156,299.412811 
	C73.104065,295.676575 75.313133,293.452728 77.300362,291.044128 
	C83.567841,283.447784 89.157570,275.444824 93.146255,266.366852 
	C99.861366,251.083771 99.160683,236.008011 92.408257,220.948990 
	C91.128387,218.094681 89.275093,217.082642 86.206749,217.129242 
	C76.377792,217.278595 66.543655,217.099808 56.715256,217.267014 
	C53.634411,217.319427 51.654316,216.427872 50.603867,213.443253 
	C49.224201,209.523270 47.653149,205.671066 46.210129,201.772781 
	C44.848106,198.093307 45.885254,195.825012 50.078827,195.813950 
	C65.075211,195.774384 80.071838,195.820862 95.068176,195.773285 
	C97.563324,195.765381 99.116684,197.107300 100.379333,198.946259 
	C111.845375,215.645691 120.421127,233.615692 122.049561,254.049896 
	C123.447746,271.594940 116.059860,286.453552 105.696381,300.016357 
	C98.945961,308.850739 99.220924,305.715210 105.237549,315.001587 
	C110.551422,323.203339 117.460327,329.550446 127.364128,331.643524 
	C140.094513,334.334045 153.166733,328.266907 160.494339,316.262634 
	C166.090759,307.094452 168.846924,297.808258 166.109299,286.491364 
	C161.958420,269.332306 160.832947,251.627197 161.747406,233.920746 
	C162.143478,226.251923 163.448318,218.726685 167.327866,211.862503 
	C169.801620,207.485611 173.183594,204.717941 178.384140,204.566055 
	C183.968079,204.403000 187.891129,207.020081 190.505905,211.796616 
	C194.974716,219.960052 195.477539,229.011932 195.856491,237.958160 
	C196.691879,257.679901 194.056061,277.153992 189.774521,296.313568 
	C188.380859,302.550110 189.763077,307.113403 192.684219,312.181915 
	C204.820999,333.240662 230.786667,332.311401 244.611603,313.861908 
	C245.865555,312.188507 246.363876,310.446808 246.355408,308.312592 
	C246.215134,272.989807 246.131088,237.666763 246.104263,202.343719 
	C246.099625,196.257401 246.685364,195.810120 252.700943,195.805420 
	C267.530945,195.793823 282.361938,195.887238 297.190247,195.726013 
	C300.534637,195.689651 302.514862,196.767365 303.569275,199.914993 
	C305.096008,204.472702 307.600861,208.692719 308.230469,213.975494 
z"/>
</svg>
